src/main/resources/icons/DartIcons/META-INF/pluginIcon.svg

<svg width="40" height="40" viewBox="0 0 40 40" fill="none" xmlns="http://www.w3.org/2000/svg">
<path d="M10.5261 29.4739L5.05161 23.9994C4.40229 23.3336 4 22.3926 4 21.4727C4 21.0469 4.23996 20.3811 4.42111 20L9.47449 9.47449L10.5261 29.4739Z" fill="#01579B"/>
<path d="M29.2645 10.5261L23.7901 5.05161C23.3125 4.57168 22.3173 4 21.4751 4C20.7505 4 20.04 4.14586 19.5813 4.42111L9.47687 9.47449L29.2645 10.5261Z" fill="#40C4FF"/>
<path d="M17.0522 36H30.3161V30.3161L20.4211 27.1566L11.3683 30.3161L17.0522 36Z" fill="#40C4FF"/>
<path d="M9.47449 26.5261C9.47449 28.2153 9.68622 28.6293 10.5261 29.4739L11.3683 30.3161H30.3161L21.054 19.7906L9.47449 9.47449V26.5261Z" fill="#29B6F6"/>
<path d="M26.3167 9.47214H9.47449L30.3161 30.3138H36V17.2616L29.2622 10.5237C28.3164 9.57565 27.4765 9.47214 26.3167 9.47214Z" fill="#01579B"/>
<path opacity="0.2" d="M10.7378 29.6833C9.89558 28.8387 9.68619 28.0059 9.68619 26.5261V9.68387L9.47681 9.47449V26.5261C9.47446 28.0059 9.47446 28.4152 10.7378 29.6833L11.3683 30.3138L10.7378 29.6833Z" fill="white"/>
<path opacity="0.2" d="M35.7906 17.0522V30.1044H30.1068L30.3161 30.3161H36V17.2616L35.7906 17.0522Z" fill="#263238"/>
<path opacity="0.2" d="M29.2645 10.5261C28.22 9.48154 27.366 9.47449 26.1074 9.47449H9.47687L9.68625 9.68387H26.1074C26.7355 9.68387 28.3212 9.578 29.2645 10.5261Z" fill="white"/>
<path opacity="0.2" d="M35.7906 17.0522L29.2646 10.5261L23.7901 5.05161C23.3125 4.57168 22.3173 4 21.4751 4C20.7505 4 20.04 4.14586 19.5813 4.42111L9.47687 9.47449L4.42349 20C4.24235 20.3835 4.00238 21.0493 4.00238 21.4727C4.00238 22.3926 4.40703 23.3313 5.05399 23.9994L10.098 29.0081C10.2179 29.1563 10.3591 29.3069 10.5261 29.4739L10.7355 29.6833L11.366 30.3138L16.8405 35.7883L17.0499 35.9976H30.1021H30.3115V30.3138H35.9953V30.2997V17.2616L35.7906 17.0522Z"/>
<defs>
<radialGradient id="paint0_radial" cx="0" cy="0" r="1" gradientTransform="translate(19.9989 19.9993) scale(15.9976)">
<stop stop-color="white" stop-opacity="0.1"/>
<stop offset="1" stop-color="white" stop-opacity="0"/>
</radialGradient>
</defs>
</svg>

<svg width="40" height="40" viewBox="0 0 40 40" fill="none" xmlns="http://www.w3.org/2000/svg"><rect id="frame" width="40" height="40" fill="none"/><path d="M10.526 29.474l-5.474-5.475C4.402 23.334 4 22.393 4 21.473c0-.426.24-1.092.421-1.473L9.474 9.474l1.052 20z" fill="#01579B"/><path d="M29.265 10.526L23.79 5.052C23.313 4.572 22.317 4 21.475 4c-.725 0-1.435.146-1.894.421L9.477 9.474l19.788 1.052z" fill="#40C4FF"/><path d="M17.052 36h13.264v-5.684l-9.895-3.16-9.053 3.16L17.052 36z" fill="#40C4FF"/><path d="M9.474 26.526c0 1.69.212 2.103 1.052 2.948l.842.842h18.948l-9.262-10.525L9.474 9.474v17.052z" fill="#29B6F6"/><path d="M26.317 9.472H9.474l20.842 20.842H36V17.262l-6.738-6.738c-.946-.948-1.785-1.052-2.945-1.052z" fill="#01579B"/><path opacity=".2" d="M10.738 29.683c-.842-.844-1.052-1.677-1.052-3.157V9.684l-.21-.21v17.052c-.002 1.48-.002 1.89 1.262 3.157l.63.63-.63-.63z" fill="#fff"/><path opacity=".2" d="M35.79 17.052v13.052h-5.683l.21.212H36V17.262l-.21-.21z" fill="#263238"/><path opacity=".2" d="M29.265 10.526c-1.045-1.044-1.899-1.052-3.158-1.052H9.477l.21.21h16.42c.628 0 2.214-.106 3.158.842z" fill="#fff"/><path opacity=".2" d="M35.79 17.052l-6.525-6.526-5.475-5.474C23.313 4.572 22.317 4 21.475 4c-.725 0-1.435.146-1.894.421L9.477 9.474 4.423 20c-.18.384-.42 1.05-.42 1.473 0 .92.404 1.858 1.051 2.526l5.044 5.01c.12.147.261.298.428.465l.21.21.63.63 5.474 5.474.21.21h13.262v-5.684h5.683V17.262l-.204-.21z"/><defs><radialGradient id="paint0_radial" cx="0" cy="0" r="1" gradientTransform="translate(19.999 20) scale(15.9976)"><stop stop-color="#fff" stop-opacity=".1"/><stop offset="1" stop-color="#fff" stop-opacity="0"/></radialGradient></defs></svg>
